icons/solid/phone-outgoing.svg

<svg width="24" height="24" viewBox="0 0 24 24" fill="none" xmlns="http://www.w3.org/2000/svg">
<path fill-rule="evenodd" clip-rule="evenodd" d="M13.2929 9.29289C12.9024 9.68342 12.9024 10.3166 13.2929 10.7071C13.6834 11.0976 14.3166 11.0976 14.7071 10.7071L18 7.41421L19.2929 8.70711C19.5789 8.9931 20.009 9.07866 20.3827 8.92388C20.7564 8.7691 21 8.40446 21 8V4C21 3.44772 20.5523 3 20 3H16C15.5955 3 15.2309 3.24364 15.0761 3.61732C14.9213 3.99099 15.0069 4.42111 15.2929 4.70711L16.5858 6L13.2929 9.29289ZM3 4C2.44772 4 2 4.44772 2 5C2 7.02274 2.42416 9.73381 3.58294 12.3988C4.98312 15.6188 7.47777 18.8187 11.605 20.5935C13.6724 21.4825 16.1206 22 19 22C19.5523 22 20 21.5523 20 21V17C20 16.5411 19.6877 16.1411 19.2425 16.0299L15.2425 15.0299C14.8667 14.9359 14.4704 15.0675 14.2254 15.3676L11.7161 18.4412C8.82223 16.9977 6.9199 14.7056 5.72478 12.2673L8.65079 9.75926C8.93838 9.51275 9.06201 9.12493 8.97014 8.75746L7.97014 4.75746C7.85885 4.3123 7.45887 4 7 4H3Z" fill="currentColor"/>
</svg>

<svg width="24" height="24" fill="none" xmlns="http://www.w3.org/2000/svg"><path fill-rule="evenodd" clip-rule="evenodd" d="M13.293 9.293a1 1 0 001.414 1.414L18 7.414l1.293 1.293A1 1 0 0021 8V4a1 1 0 00-1-1h-4a1 1 0 00-.707 1.707L16.586 6l-3.293 3.293zM3 4a1 1 0 00-1 1c0 2.023.424 4.734 1.583 7.399 1.4 3.22 3.895 6.42 8.022 8.194C13.672 21.483 16.121 22 19 22a1 1 0 001-1v-4a1 1 0 00-.758-.97l-4-1a1 1 0 00-1.017.338l-2.509 3.073c-2.894-1.443-4.796-3.735-5.991-6.174L8.65 9.76a1 1 0 00.32-1.002l-1-4A1 1 0 007 4H3z" fill="currentColor"/></svg>
